svg/relay.svg

<svg width="24" height="24" viewBox="0 0 24 24"  xmlns="http://www.w3.org/2000/svg">
<path fill-rule="evenodd" clip-rule="evenodd" d="M13 7H20C21.1046 7 22 7.89543 22 9V15C22 16.1046 21.1046 17 20 17H13V20H11V17H4C2.89543 17 2 16.1046 2 15V9C2 7.89543 2.89543 7 4 7H11V4H13V7ZM20 9H16.4142L10.4142 15H20V9ZM4 9H13.5858L7.58579 15H4V9Z" />
</svg>

<svg width="24" height="24" viewBox="0 0 24 24" xmlns="http://www.w3.org/2000/svg"><path fill-rule="evenodd" clip-rule="evenodd" d="M13 7h7a2 2 0 0 1 2 2v6a2 2 0 0 1-2 2h-7v3h-2v-3H4a2 2 0 0 1-2-2V9a2 2 0 0 1 2-2h7V4h2v3zm7 2h-3.586l-6 6H20V9zM4 9h9.586l-6 6H4V9z"/></svg>
